icons/16/bell-filled.svg

<svg width="16" height="16" viewBox="0 0 16 16" xmlns="http://www.w3.org/2000/svg">
  <path fill-rule="evenodd" clip-rule="evenodd" d="M8 0C5.23858 0 3 2.23858 3 5V7.34167C3 7.78588 2.86851 8.22015 2.62211 8.58975L1.25488 10.6406C1.08868 10.8899 1 11.1828 1 11.4824C1 12.3206 1.67945 13 2.51759 13H13.4824C14.3206 13 15 12.3206 15 11.4824C15 11.1828 14.9113 10.8899 14.7451 10.6406L14.1211 11.0566L14.7451 10.6406L13.3779 8.58975C13.1315 8.22015 13 7.78588 13 7.34167V5C13 2.23858 10.7614 0 8 0ZM8.00002 16C9.0201 16 9.8618 15.2363 9.98461 14.2495C10.0017 14.1125 9.88809 14 9.75002 14H6.25002C6.11195 14 5.99838 14.1125 6.01543 14.2495C6.13824 15.2363 6.97995 16 8.00002 16Z"/>
</svg>

<svg width="16" height="16" viewBox="0 0 16 16" xmlns="http://www.w3.org/2000/svg">
  <path fill-rule="evenodd" clip-rule="evenodd" d="M8 0a5 5 0 00-5 5v2.342c0 .444-.131.878-.378 1.248l-1.367 2.05A1.518 1.518 0 002.518 13h10.964a1.518 1.518 0 001.263-2.36l-1.367-2.05A2.25 2.25 0 0113 7.342V5a5 5 0 00-5-5zm0 16a2 2 0 001.985-1.75c.017-.137-.097-.25-.235-.25h-3.5c-.138 0-.252.113-.235.25A2 2 0 008 16z"/>
</svg>
